X:13
T:Finnskogspols efter Johan Olsen Tajet
R:polska L1
Z:id:hn-L1-13
M:3/4
L:1/8
K:D
|: F>A F>A FA | G>B G>B GB | e>d c>A Bc | d>f e>c A2 |
F>A F>A FA | G>B G>B GB | e>d c>A Bc | d2 d4 :|
|: d>f d>f df | g2 g4 | c>e c>e ce | f2 f4 |
F>A F>A FA | G>B G>B GB | e>d c>A Bc | d2 d4 :|

